X: 37
T:VALSE COTILLON (IRLANDE)
M:3/4
L:1/8
Q:1/4=88
K:C
|:GE3/2G/2 cBA|AG3/2C/2 E2C/2E/2|1GFE D3|AG3/2C/2 E3:|2GFE D2E/2D/2|C3/2
C/2C C3|!
Cde |:ff3/2d/2|fdf ee3/2c/2|ece dd3/2d/2|dAB c3/2c/2c|1cde:|2cBA|!
|:G3/2A/2G E2C|G,C3/2E/2 AGG|Gf3/2e/2 ddd|Ge3/2d/2 c3:|
